X: 17027
T: Heartland Part 1
R: reel
M: 4/4
K: Adorian
A,2(3A,A,A, CA,DA,|EA,CD EDEB|EDAE DGED|GEDF DB,EA,|
(3A,A,A, (3A,A,A, CA,DA,|EA,CD EDEB|EDAE DGED|(3FDB, EA,- A,A,G,A,|
zA, (3A,A,A, CA,DA,|EA,CD EDEB|EDAE DGED|GEDF DB,EA,|
A,A, (3A,A,A, CA,DA,|EA,CD EDEB|EDAE DGDD|(3BcB AG ABcd|
eEdE cEBE|(3BcB AG FGAB|cEEB EEAE|(3AGF ED EFGA|
eEdE cEBE|(3BcB AG FGAB|cEEB EEAE|(3AGF ED Ez (3Bcd|
eEdE cEBE|(3BcB AG FGAB|cEEB EEAE|(3ABA GF EFGA|
BDGB EGcG|AdAd efgf|(3gfe dc BcBA|GFGF EDCB,|
|:GG (3ABc dcBA|Bgfe dcBc|de (3dcB cdBc|ABGF GADD|
GG (3ABc dcBA|Bgfe dcBc|de (3dcB cdAB|cGAF G2 z2:|
|:(3def ga bagf|(3fgf dB dgcd|adga bc'ba|gfgd cdcB|
AzLe2 (3edc BA|GzLd2 (3dcB AG|FGAB cBAG|(3BGE (3AFD G2 z2:|
Lg2z2 z4|

